public_HTTPS/images/radialMenu/large16.svg

<?xml version="1.0"?>
<svg width="50" height="50" xmlns="http://www.w3.org/2000/svg" xmlns:svg="http://www.w3.org/2000/svg">
 <g>
  <title>Layer 1</title>
  <path fill="#ffffff" id="svg_1" d="m41.554001,8.551l0,14.621001l-14.619001,0l0,-14.621001l14.619001,0zm-33.108001,14.621001l14.62,0l0,-14.621001l-14.62,0l0,14.621001zm18.488999,18.277l14.619001,0l0,-14.619001l-14.619001,0l0,14.619001zm-18.488999,0l14.62,0l0,-14.619001l-14.62,0l0,14.619001z"/>
 </g>
</svg>

<?xml version="1.0" encoding="utf-8"?>
<!-- Generator: Adobe Illustrator 16.0.4, SVG Export Plug-In . SVG Version: 6.00 Build 0)  -->
<!DOCTYPE svg PUBLIC "-//W3C//DTD SVG 1.1//EN" "http://www.w3.org/Graphics/SVG/1.1/DTD/svg11.dtd">
<svg version="1.1" id="Layer_1" xmlns="http://www.w3.org/2000/svg" xmlns:xlink="http://www.w3.org/1999/xlink" x="0px" y="0px"
	 width="50px" height="50px" viewBox="0 0 50 50" enable-background="new 0 0 50 50" xml:space="preserve">
<path d="M41.554,8.551v14.621H26.935V8.551H41.554z M8.446,23.172h14.62V8.551H8.446V23.172z M26.935,41.449h14.619V26.83H26.935
	V41.449z M8.446,41.449h14.62V26.83H8.446V41.449z"/>
</svg>
